t180;// [bass]@2 o3 l2. q7> r4[a+ g+ f+ g+]7a+ g+ f+ g+2; // [/bass]// [melody]#TABLE 2 { (100, 48)8, (64, 12)8 };#TABLE 3 { 50, 24, 44, 20, 40, 16, 36, 12, 32, 8, 28, 4, 24, 0 };@0 q6o5 l4 na2f a+. g+8a+8g+8f2 c+ d+2c+ >a+2<f a+. g+8a+8g+8<c c+ c> a+2g+ a+2f a+. g+8a+8g+8f2 c+ d+2c+ >a+2<f a+. g+8a+8g+8<c c+ c f2d+ f2><f a+2 g+ d+2>a+< c+2 c d+2f a+2 g+ <c+ c>g+a+2g+a+2f a+2 g+ d+2>a+< c+2 c d+2f a+2 g+ <c>a+g+a+rg+a+r; // [melody]// [percussion]#H=g;#S=v8 b;#K=v10 <g>;#C=na1 q6 g4 na0 q1;#TABLE 0 { 128};#TABLE 1 { 60, 60, 56, 56, 52, 52, 48, 48, 44, 44, 40, 40, 36, 36, 32, 32, 28, 28, 24, 24 };// HiHat + Crash@1 q1 l16 v6 na0 [HHHH r4 Hr8. [Hr8. r4 Hr8.]3]8;// Snare + Kick@1 q1 l16 [[r4 Kr8. r4]3 r4 KrKr Kr8.]8;// [percussion]