t180;// [bass]@2 o3 l8 q6[>a+<f>a+<f>a+<f>a+<f>g+<d+>g+<d+>g+<d+>g+<d+>f+<c+>f+<c+>f+<c+>f+<c+>g+<d+>g+<d+>g+<d+>g+<d+]8; // [/bass]// [melody]#TABLE 2 { (100, 48)8, (64, 12)8 };#TABLE 3 { 50, 24, 44, 20, 40, 16, 36, 12, 32, 8, 28, 4, 24, 0 };@0 q6o5 l8 na2f4.  a+2 rr4   g+  a+ g+4 f+4g+4. f2  rc+4. d+2 r f4.  a+2 r r4   g+  a+ g+4 a+4<c4.  c+2 r d+4. c+2 r>f4.  a+2 rr4   g+  a+ g+4 f+4g+4. f2  rc+4. d+2 r f4.  a+2 r r4   g+  a+ g+4 a+4<c4.  c+2 r d+4. c+2 r>o6 l4 na3 f .  d+. c+ d+.  c+. c>a+.< c .  c+>g+2< r2f . d+. c+d+. c+. cd+. f . rf+. f . r f .  d+. c+ d+.  c+. c>a+.< c .  c+>g+2< r2 f .  d+. c+ d+.  c+. c>a+.< d+. f f+.  g+. r; // [melody]// [percussion]#H=g;#S=v8 b;#K=v10 <g>;#C=na1 q6 g4 na0 q1;#TABLE 0 { 128};#TABLE 1 { 60, 60, 56, 56, 52, 52, 48, 48, 44, 44, 40, 40, 36, 36, 32, 32, 28, 28, 24, 24 };// HiHat + Crash@1 q1 l16 v6 na0 [HrHHrrHH]31 HrHHrHHH[ [HrHHrrHH]7 HrHHC]3[HrHHrrHH]7 HrHHrHHH;// Snare + Kick@1 q1 l16 [rrrrSrrr]31 rSrrSrrr[ [rrrrSrrr]7  rSrrSrrr]4;// [percussion]