t180;// [bass]@2 o3 l4 q7>[a+1g+1f+1g+1]4;@2 o3 l4 q7 v8[f1d+1c+1d+1]4; // [/bass]// [melody]#TABLE 2 { (100, 48)8, (64, 12)8 };#TABLE 3 { 50, 24, 44, 20, 40, 16, 36, 12, 32, 8, 28, 4, 24, 0 };@0 q6o5 l8 na2[<c> f]4[<c+> f]4[<c> f]4[a+ f]3 a+ <c>[<c+> f <c> f][<d+> f]4<f> f <d+> f <c+> f <d+> f[<c> f]4a+ f <c> f <c+> f <d+> f[g+ f]4[a+ f]4[<c> f]4a+ f <c> f <c+> f <d+> f[g+ f]4<f> f <d+> f <c+> f <d+> f[<c> f]4; // [melody]// [percussion]#H=g;#S=v6 b;#K=v8 <g>;#C=v8 na1 q6 g4 v4 na0 q1;#TABLE 0 { 128};#TABLE 1 { 60, 60, 56, 56, 52, 52, 48, 48, 44, 44, 40, 40, 36, 36, 32, 32, 28, 28, 24, 24 };// HiHat + Crash@1 q1 l16 na0rrrr HrHr Hrrr rrHrrrrr rrHH rrrr rrHHrrrr rrHr rrHr rrHrrrrr Hrrr Hrrr Hrrrrrrr HHHr rrrr HHHrrrrr rrrr Hrrr Hrrrrrrr rrHr rrHr rrHrrrrr rrrr rrHr Hrrrrrrr HHrr rrrr HHrrrrrr HrHr rrrr HrHrrrrr Hrrr Hrrr Hrrrrrrr Hrrr Hrrr Hrrrrrrr HHrr rrrr HHrrrrrr HrHr rrrr HrHrrrrr Hrrr Hrrr Hrrrrrrr HrHr HrHr HrHr;// Snare + Kick@1 q1 l16KKKr rKrK rrKr KrrrKKKr Krrr Krrr KrrrKKKr Krrr Krrr KrrrKKKr rrrr rrrr rrrrKKKr rrrr KKKr rrrrKKKK KKKK rrrr rrrrKKKr Krrr Krrr KrrrKKKK KKKK rrrr rrrrKKrr rrrr KKrr rrrrKKKr rrrr KKKr rrrrKKKr rrrr rrrr rrrrKKKr rrrr rrrr rrrrKKrr rrrr KKrr rrrrKKKr rrrr KKKr rrrrKKKr rrrr rrrr rrrrKKKK rKrK rKrr rrrr;// [percussion]