t180;// [bass]@2 o3 l8 q7>// Introa+1g+1q5 f+4 f+4 f+4 f+4q7 g+4 g+4 g+g+g+g+// Firt phrase (bridge?)[a+ <f>]4[g+ <d+>]4[f+ <c+>]4[g+ <d+>]4// Chorus... ish?[a+ <f>]4[g+ <d+>]4[f+ <c+>]4[<c+> | g+]4 <c>[a+ <f>]4[g+ <d+>]4[f+ <c+>]4g+2 r a+ a+4; // [/bass]// [melody]#TABLE 2 { (100, 48)8, (64, 12)8 };#TABLE 3 { 50, 24, 44, 20, 40, 16, 36, 12, 32, 8, 28, 4, 24, 0 };@0 q6o5 l8 na2// Introf4. g+4. a+4d+4. r r2c+4. r r2d+4. r r2// Firt phrase (bridge?)f4. g+4. a+4d+4. r r2a+4. r r2<c2> r2// Chorus... ish?[g+ f]4[a+ f]4[<c> g+]4[<c+> | g+]4 <c>[g+ f]4[a+ f]4[<c> g+]4<c+2> r g+ g+; // [melody]// [percussion]#H=g;#S=v6 b;#K=v8 <g>;#C=na1 q6 g4 na0 q1;#TABLE 0 { 128};#TABLE 1 { 60, 60, 56, 56, 52, 52, 48, 48, 44, 44, 40, 40, 36, 36, 32, 32, 28, 28, 24, 24 };// HiHat + Crash@1 q1 l16 v4 na0Hr8. r4 r2Hr8. r4 Hr8. r4Hr8. r4 Hr8. r4Hr8. Hr8. Hr8. Hr8.Hr8. Hr8. Hr8. Hr8.Hr8. Hr8. Hr8. Hr8.Hr8. Hr8. Hr8. Hr8.Hr8. Hr8. Hr8. HHHHHrHr HrHr HrHr HrHrHrHr HrHr HrHr HrHrHrHr HrHr HrHr HrHrHrHr HrHr HrHr HrHrHrHr HrHr HrHr HrHrHrHr HrHr HrHr HrHrHrHr HrHr HrHr HHHHHrHr rrrr rrHr HrH;// Snare + Kick@1 q1 l16r1r1r1r1Kr8. r8Sr KrKr Sr8.Kr8. Sr8. KrKr Sr8.Kr8. r8Sr KrKr Sr8.Kr8. Sr8. KrKr Sr8.Kr8. SSr8 KrKr SSr8Kr8. SSr8 KrKr SSr8Kr8. SSr8 KrKr SSr8Kr8. SSr8 KrKr SSr8Kr8. SSr8 KrKr SSr8Kr8. SSr8 KrKr SSr8Kr8. SSr8 KrKr SSSrKr8. r4 r8 KrKrK;// [percussion]